images_sukapura_svg/cmd/sc_deletecolumns.svg

<svg height="16" viewBox="0 0 16 16" width="16" xmlns="http://www.w3.org/2000/svg"><path d="m15 1h-4.0078l-.000012 8h4zm-10 0h-4l-.007812 8h4.007812z" fill="#fff"/><path d="m5 1v3h-4v1h9 5v-1h-4v-3h-1v3h-4v-3zm-.0761719 4h.0761719v.261719l.0214844.310547-.0214844.138672v3.289062h1v-4h4v4h1v-4z" fill="#bababa"/><path d="m0 0v5l-.007812 4.5c-.00038442.276301.22369855.500384.5.5h5.5v-.998047h-5.00195312c-.00050164-2.0031504.00976512-1.9997461.00976512-4.001953v-1-3h5v-1zm10 0v1h5v3 1c.07356 2.0719462-.0058 1.7621128-.0058 4.001953h-5.002v.998047h5.5c.276301.000384.500384-.223699.5-.5l.0078-4.5v-5z" fill="#69696e"/><g transform="matrix(0 1 -1 0 15 -1)"><path d="m6 5h10v4h-10z" fill="#fe665f" fill-opacity=".968627"/><path d="m5 4v6h12v-6zm1 1 4.001953.00781v4l-4.001953-.00781zm5.001953.007812 4.998047-.007812v4l-4.998047.00781z" fill="#c20618"/></g></svg>

<?xml version="1.0" encoding="UTF-8" standalone="no"?>
<svg
   xmlns:dc="http://purl.org/dc/elements/1.1/"
   xmlns:cc="http://creativecommons.org/ns#"
   xmlns:rdf="http://www.w3.org/1999/02/22-rdf-syntax-ns#"
   xmlns:svg="http://www.w3.org/2000/svg"
   xmlns="http://www.w3.org/2000/svg"
   xmlns:sodipodi="http://sodipodi.sourceforge.net/DTD/sodipodi-0.dtd"
   xmlns:inkscape="http://www.inkscape.org/namespaces/inkscape"
   viewBox="0 0 16 16"
   version="1.1"
   id="svg14"
   sodipodi:docname="sc_deletecolumns.svg"
   inkscape:export-filename="/home/rizmut/Documents/Rizmut/Github/libreoffice-style-sukapura/images_sukapura/cmd/sc_deletecolumns.png"
   inkscape:export-xdpi="96"
   inkscape:export-ydpi="96"
   inkscape:version="0.92.3 (2405546, 2018-03-11)"
   width="16"
   height="16">
  <metadata
     id="metadata20">
    <rdf:RDF>
      <cc:Work
         rdf:about="">
        <dc:format>image/svg+xml</dc:format>
        <dc:type
           rdf:resource="http://purl.org/dc/dcmitype/StillImage" />
        <dc:title></dc:title>
      </cc:Work>
    </rdf:RDF>
  </metadata>
  <defs
     id="defs18">
    <filter
       style="color-interpolation-filters:sRGB"
       id="b"
       height="1.094553"
       width="1.097492"
       x="-0.048746001"
       y="-0.047277">
      <feGaussianBlur
         stdDeviation=".36559322"
         id="feGaussianBlur957" />
    </filter>
    <linearGradient
       gradientTransform="translate(-41,-2)"
       id="a"
       gradientUnits="userSpaceOnUse"
       x1="12"
       x2="12"
       y1="3"
       y2="21">
      <stop
         offset="0"
         stop-color="#efefef"
         id="stop948" />
      <stop
         offset=".33333334"
         stop-color="#fff"
         id="stop950" />
      <stop
         offset=".8888889"
         stop-color="#fff"
         id="stop952" />
      <stop
         offset="1"
         stop-color="#f5f5f5"
         id="stop954" />
    </linearGradient>
    <linearGradient
       gradientTransform="translate(32,-5)"
       id="a-3"
       gradientUnits="userSpaceOnUse"
       x1="14"
       x2="13.79661"
       y1="22"
       y2="2.1355929">
      <stop
         offset="0"
         stop-color="#0040dd"
         id="stop1604" />
      <stop
         offset="1"
         stop-color="#0a84ff"
         id="stop1606" />
    </linearGradient>
    <filter
       style="color-interpolation-filters:sRGB"
       id="b-6"
       height="1.094553"
       width="1.097492"
       x="-0.048746001"
       y="-0.047277">
      <feGaussianBlur
         stdDeviation=".36559322"
         id="feGaussianBlur957-7" />
    </filter>
    <clipPath
       clipPathUnits="userSpaceOnUse"
       id="clipPath870">
      <rect
         style="opacity:1;fill:#ffffff;fill-opacity:1;stroke:none;stroke-width:2;stroke-linecap:round;stroke-linejoin:round;stroke-miterlimit:4;stroke-dasharray:none;stroke-opacity:1"
         id="rect872"
         width="48"
         height="48"
         x="808"
         y="-528" />
    </clipPath>
    <linearGradient
       gradientTransform="translate(-25.830508,-3.5932203)"
       id="a-2"
       gradientUnits="userSpaceOnUse"
       x1="14"
       x2="13.79661"
       y1="22"
       y2="2.1355929">
      <stop
         offset="0"
         stop-color="#0040dd"
         id="stop2" />
      <stop
         offset="1"
         stop-color="#0a84ff"
         id="stop4" />
    </linearGradient>
  </defs>
  <sodipodi:namedview
     pagecolor="#ffffff"
     bordercolor="#666666"
     borderopacity="1"
     objecttolerance="10"
     gridtolerance="10"
     guidetolerance="10"
     inkscape:pageopacity="0"
     inkscape:pageshadow="2"
     inkscape:window-width="1366"
     inkscape:window-height="685"
     id="namedview16"
     showgrid="true"
     inkscape:zoom="11.313708"
     inkscape:cx="-14.609771"
     inkscape:cy="5.2550724"
     inkscape:window-x="0"
     inkscape:window-y="0"
     inkscape:window-maximized="1"
     inkscape:current-layer="g847"
     inkscape:snap-global="true">
    <inkscape:grid
       type="xygrid"
       id="grid827"
       spacingx="0.5"
       spacingy="0.5"
       empspacing="2" />
  </sodipodi:namedview>
  <g
     id="g1014">
    <path
       style="fill:#ffffff"
       d="m 15,1 h -4.0078 l -1.2e-5,8 h 4 z M 5,1 H 1 L 0.992188,9 H 5 Z"
       id="path2-3"
       inkscape:connector-curvature="0"
       sodipodi:nodetypes="cccccccccc" />
    <path
       style="fill:#bababa;fill-opacity:1"
       d="M 5,1 V 4 H 1 v 1 h 9 5 V 4 H 11 V 1 H 10 V 4 H 6 V 1 Z M 4.9238281,5 H 5 V 5.261719 L 5.0214844,5.572266 5,5.710938 V 9 H 6 V 5 h 4 v 4 h 1 V 5 Z"
       id="path4-6"
       inkscape:connector-curvature="0"
       sodipodi:nodetypes="ccccccccccccccccccccccccccc" />
    <path
       style="fill:#69696e;fill-opacity:1"
       d="m 0,0 v 5 l -0.007812,4.5 c -3.8442e-4,0.276301 0.22369855,0.500384 0.5,0.5 h 5.5 V 9.001953 H 0.99023488 C 0.98973324,6.9988026 1,7.0022069 1,5 V 4 1 H 6 V 0 Z m 10,0 v 1 h 5 v 3 1 c 0.07356,2.0719462 -0.0058,1.7621128 -0.0058,4.001953 h -5.002 V 10 h 5.5 c 0.276301,3.84e-4 0.500384,-0.223699 0.5,-0.5 L 16,5 V 0 Z"
       id="path929"
       inkscape:connector-curvature="0"
       sodipodi:nodetypes="cccccccccccccccccccccccccc" />
    <g
       id="g847"
       transform="rotate(90,8,7)">
      <path
         sodipodi:nodetypes="ccccc"
         inkscape:connector-curvature="0"
         id="rect879"
         d="M 6,5 H 16 V 9 H 6 Z"
         style="opacity:1;fill:#fe665f;fill-opacity:0.96862745;stroke:none;stroke-width:2;stroke-linecap:round;stroke-linejoin:round;stroke-miterlimit:4;stroke-dasharray:none;stroke-opacity:1" />
      <path
         sodipodi:nodetypes="ccccccccccccccc"
         inkscape:connector-curvature="0"
         id="rect874"
         d="m 5,4 v 6 H 17 V 4 Z m 1,1 4.001953,0.00781 v 4 L 6,9 Z M 11.001953,5.007812 16,5 v 4 l -4.998047,0.00781 z"
         style="opacity:1;fill:#c20618;fill-opacity:1;stroke:none;stroke-width:2;stroke-linecap:round;stroke-linejoin:round;stroke-miterlimit:4;stroke-dasharray:none;stroke-opacity:1" />
    </g>
  </g>
</svg>
